icons/contact-email-school.svg

<svg
  xmlns="http://www.w3.org/2000/svg"
  viewBox="0 0 500 500"
  width="500"
  height="500"
  fill="#ffffff"
>
  <path d="M489 86.7L374.7 201a9.8 9.8 0 0 1-5.8 17.7H134.8a9.8 9.8 0 0 1-6.1-17.4L12.2 84.8a50.4 50.4 0 0 0-7.2 26v278.4a51.1 51.1 0 0 0 51.1 51.1h387.8a51.1 51.1 0 0 0 51.1-51.1V110.8a51.8 51.8 0 0 0-6-24.1zM227.8 329.4h14.8v-71.5h-14.8v-19.6H276v19.6h-13.8v71.5H276V349h-48.2zm-93 0h14.8v-71.5h-14.8v-19.6H183v19.6h-13.8v71.5H183V349h-48.2zm234.1 56.4H134.8v-19.6h234.1zm0-127.9h-13.8v71.5h13.8V349h-48.2v-19.6h14.8v-71.5h-14.8v-19.6h48.2z" />
  <polygon points="174.3 199.1 329.7 199.1 252.3 157.8 174.3 199.1" />
  <path d="M146.9 191.5l100.9-53.4a9.4 9.4 0 0 1 9.2 0l99.1 52.9L476 71.1a50.8 50.8 0 0 0-32.1-11.4H56.1a51 51 0 0 0-30.3 10l121.1 121.1z" />
</svg>

<svg xmlns="http://www.w3.org/2000/svg" viewBox="0 0 500 500">
  <g id="contact-email-school">
    <path id="bottom" d="M489,86.7,374.7,201a9.8,9.8,0,0,1-5.8,17.7H134.8a9.8,9.8,0,0,1-6.1-17.4L12.2,84.8a50.4,50.4,0,0,0-7.2,26V389.2a51.1,51.1,0,0,0,51.1,51.1H443.9A51.1,51.1,0,0,0,495,389.2V110.8A51.8,51.8,0,0,0,489,86.7ZM227.8,329.4h14.8V257.9H227.8V238.3H276v19.6H262.2v71.5H276V349H227.8Zm-93,0h14.8V257.9H134.8V238.3H183v19.6H169.2v71.5H183V349H134.8Zm234.1,56.4H134.8V366.2H368.9Zm0-127.9H355.1v71.5h13.8V349H320.7V329.4h14.8V257.9H320.7V238.3h48.2Z"/>
    <polygon id="mid" points="174.3 199.1 329.7 199.1 252.3 157.8 174.3 199.1"/>
    <path id="top" d="M146.9,191.5l100.9-53.4a9.4,9.4,0,0,1,9.2,0L356.1,191,476,71.1a50.8,50.8,0,0,0-32.1-11.4H56.1a51,51,0,0,0-30.3,10L146.9,190.8Z"/>
  </g>
</svg>
